X:1
T: Lady Catherine Stewart
C:
R:Strathspey
Q: 128
K:Em
M:4/4
L:1/16
|:e2|BE3 E3F B3A F3A|BE3 E3F D3E F3A|BE3 E3F B3A F3A|B2cd BAGF E4 E2e2|
BE3 E3F B3A F3A|BE3 E3F D3E F3A|BE3 E3F B3A F3A|B2cd BAGF E4 E2F2|
Dd3 d3e dcBc d4|FA3 A3B A2GF A4|Be3 e2fg f2e^d e4|BABd BAGF E4 E3F|
Dd3 d3e dcBc d4|FA3 A3B A2GF A4|Ee3 e3f g3e f3d|B3d A2GF E4 E2:|
